X: 6
T: The Old Blackthorn
R: reel
M: 4/4
L: 1/8
K: Fmaj
||e2|fAAd cAGA|Fffe dcde|fAAd cAFA|GFEG Fbag|
|fAAd cAGA|Fffe dcde|fAAd cAFA|GFEG F2~f2||
|f2a/g/f gbaf|c2 e/d/c gcec|fgab c'2 c'd'|c'agb af~f2|
|f2a/g/f gbaf|c2 e/d/c gcec|fgab c'2 c'd'|c'aga f4||


Tune 720	Setting 13794

